mimes/64/extension.svg

<?xml version="1.0" encoding="UTF-8" standalone="no"?>
<svg
   xmlns:dc="http://purl.org/dc/elements/1.1/"
   xmlns:cc="http://creativecommons.org/ns#"
   xmlns:rdf="http://www.w3.org/1999/02/22-rdf-syntax-ns#"
   xmlns:svg="http://www.w3.org/2000/svg"
   xmlns="http://www.w3.org/2000/svg"
   xmlns:xlink="http://www.w3.org/1999/xlink"
   version="1.0"
   width="64"
   height="64"
   id="svg3783">
  <metadata
     id="metadata43">
    <rdf:RDF>
      <cc:Work
         rdf:about="">
        <dc:format>image/svg+xml</dc:format>
        <dc:type
           rdf:resource="http://purl.org/dc/dcmitype/StillImage" />
        <dc:title />
      </cc:Work>
    </rdf:RDF>
  </metadata>
  <defs
     id="defs3785">
    <linearGradient
       id="linearGradient3702">
      <stop
         id="stop3704"
         style="stop-color:#000000;stop-opacity:0"
         offset="0" />
      <stop
         id="stop3710"
         style="stop-color:#000000;stop-opacity:1"
         offset="0.5" />
      <stop
         id="stop3706"
         style="stop-color:#000000;stop-opacity:0"
         offset="1" />
    </linearGradient>
    <linearGradient
       id="linearGradient3688">
      <stop
         id="stop3690"
         style="stop-color:#000000;stop-opacity:1"
         offset="0" />
      <stop
         id="stop3692"
         style="stop-color:#000000;stop-opacity:0"
         offset="1" />
    </linearGradient>
    <linearGradient
       id="linearGradient2490">
      <stop
         id="stop2492"
         style="stop-color:#455f0e;stop-opacity:1"
         offset="0" />
      <stop
         id="stop2494"
         style="stop-color:#84a718;stop-opacity:1"
         offset="1" />
    </linearGradient>
    <linearGradient
       id="linearGradient3242">
      <stop
         id="stop3244"
         style="stop-color:#eef87e;stop-opacity:1"
         offset="0" />
      <stop
         id="stop3246"
         style="stop-color:#cde34f;stop-opacity:1"
         offset="0.26238" />
      <stop
         id="stop3248"
         style="stop-color:#93b723;stop-opacity:1"
         offset="0.66093999" />
      <stop
         id="stop3250"
         style="stop-color:#5a7e0d;stop-opacity:1"
         offset="1" />
    </linearGradient>
    <linearGradient
       id="linearGradient4222">
      <stop
         id="stop4224"
         style="stop-color:#ffffff;stop-opacity:1"
         offset="0" />
      <stop
         id="stop4226"
         style="stop-color:#ffffff;stop-opacity:0"
         offset="1" />
    </linearGradient>
    <radialGradient
       xlink:href="#linearGradient3688"
       id="radialGradient2470"
       gradientUnits="userSpaceOnUse"
       gradientTransform="matrix(2.003784,0,0,1.4,27.98813,-17.4)"
       cx="4.9929786"
       cy="43.5"
       fx="4.9929786"
       fy="43.5"
       r="2.5" />
    <radialGradient
       xlink:href="#linearGradient3688"
       id="radialGradient2472"
       gradientUnits="userSpaceOnUse"
       gradientTransform="matrix(2.003784,0,0,1.4,-20.01187,-104.4)"
       cx="4.9929786"
       cy="43.5"
       fx="4.9929786"
       fy="43.5"
       r="2.5" />
    <linearGradient
       xlink:href="#linearGradient3702"
       id="linearGradient2474"
       gradientUnits="userSpaceOnUse"
       x1="25.058096"
       y1="47.027729"
       x2="25.058096"
       y2="39.999443" />
    <radialGradient
       xlink:href="#linearGradient3688"
       id="radialGradient2476"
       gradientUnits="userSpaceOnUse"
       gradientTransform="matrix(2.003784,0,0,1.4,27.98813,-17.4)"
       cx="4.9929786"
       cy="43.5"
       fx="4.9929786"
       fy="43.5"
       r="2.5" />
    <radialGradient
       xlink:href="#linearGradient3688"
       id="radialGradient2478"
       gradientUnits="userSpaceOnUse"
       gradientTransform="matrix(2.003784,0,0,1.4,-20.01187,-104.4)"
       cx="4.9929786"
       cy="43.5"
       fx="4.9929786"
       fy="43.5"
       r="2.5" />
    <linearGradient
       xlink:href="#linearGradient3702"
       id="linearGradient2480"
       gradientUnits="userSpaceOnUse"
       x1="25.058096"
       y1="47.027729"
       x2="25.058096"
       y2="39.999443" />
    <linearGradient
       xlink:href="#linearGradient4222"
       id="linearGradient2489"
       gradientUnits="userSpaceOnUse"
       gradientTransform="matrix(1.591623,0,0,1.591623,-13.361256,0.96335194)"
       x1="26.95891"
       y1="-0.00034927591"
       x2="26.95891"
       y2="39.089828" />
    <radialGradient
       xlink:href="#linearGradient3242"
       id="radialGradient2492"
       gradientUnits="userSpaceOnUse"
       gradientTransform="matrix(0,3.1433693,-4.5343347,-1.0381522e-7,82.758796,-9.8548105)"
       cx="7.4404225"
       cy="15.377086"
       fx="7.4404225"
       fy="15.377086"
       r="19.99999" />
    <linearGradient
       xlink:href="#linearGradient2490"
       id="linearGradient2494"
       gradientUnits="userSpaceOnUse"
       gradientTransform="matrix(1.154521,0,0,1.154521,-2.6953389,11.278339)"
       x1="24"
       y1="44"
       x2="24"
       y2="3.8990016" />
  </defs>
  <g
     style="opacity:0.3"
     id="g3761"
     transform="matrix(0.55294861,0,0,0.5714286,24.735257,36.642856)">
    <rect
       style="fill:url(#radialGradient2470);fill-opacity:1;stroke:none"
       id="rect3763"
       y="40"
       x="38"
       height="7"
       width="5" />
    <rect
       style="fill:url(#radialGradient2472);fill-opacity:1;stroke:none"
       id="rect3765"
       transform="scale(-1,-1)"
       y="-47"
       x="-10"
       height="7"
       width="5" />
    <rect
       style="fill:url(#linearGradient2474);fill-opacity:1;stroke:none"
       id="rect3767"
       y="40"
       x="10"
       height="7.0000005"
       width="28" />
  </g>
  <g
     style="opacity:0.3"
     id="g3550"
     transform="matrix(0.55992067,0,0,0.5714286,-1.2996033,36.642856)">
    <rect
       style="fill:url(#radialGradient2476);fill-opacity:1;stroke:none"
       id="rect3552"
       y="40"
       x="38"
       height="7"
       width="5" />
    <rect
       style="fill:url(#radialGradient2478);fill-opacity:1;stroke:none"
       id="rect3554"
       transform="scale(-1,-1)"
       y="-47"
       x="-10"
       height="7"
       width="5" />
    <rect
       style="fill:url(#linearGradient2480);fill-opacity:1;stroke:none"
       id="rect3556"
       y="40"
       x="10"
       height="7.0000005"
       width="28" />
  </g>
  <path
     style="fill:url(#radialGradient2492);fill-opacity:1;stroke:url(#linearGradient2494);stroke-width:1.00000012;stroke-linecap:round;stroke-linejoin:round;stroke-miterlimit:4;stroke-opacity:1;stroke-dasharray:none;stroke-dashoffset:0"
     id="rect3558"
     d="m 25.013157,2.4999995 c -3.856737,0 -6.986842,3.1301053 -6.986842,6.9868422 0,2.4104603 1.615077,4.5178543 3.473685,5.7738483 l 0,1.23931 -15.8947371,0 c -1.7203159,0 -3.1052632,1.358631 -3.1052632,3.078947 l 0,15.089638 c 1.2804568,-1.606789 3.2214512,-2.668586 5.4342107,-2.668586 3.8567366,0 6.9868416,3.130106 6.9868416,6.986844 0,3.856735 -3.130105,6.986842 -6.9868416,6.986842 -2.2127595,0 -4.1537539,-1.061797 -5.4342107,-2.668586 l 0,15.089639 c 0,1.720315 1.3849473,3.105263 3.1052632,3.105263 l 15.0896381,0 c -1.606789,-1.280457 -2.668586,-3.221451 -2.668586,-5.434211 0,-3.856737 3.130105,-6.986842 6.986842,-6.986842 3.856737,0 6.986842,3.130105 6.986842,6.986842 0,2.21276 -1.061796,4.153754 -2.668585,5.434211 l 15.089638,0 c 1.720316,0 3.105263,-1.384948 3.105263,-3.105263 l 0,-15.394738 1.212994,0 c 1.255994,1.858607 3.363388,2.973685 5.773849,2.973685 3.856737,0 6.986842,-3.130106 6.986842,-6.986842 C 61.5,35.130105 58.369895,32 54.513158,32 c -2.410461,0 -4.551932,1.655583 -5.807926,3.514192 l -1.212994,0 0.03408,-15.935245 c 0.0037,-1.720312 -1.384947,-3.105264 -3.105263,-3.105264 l -15.921052,0 0,-1.212993 c 1.858609,-1.255993 3.499999,-3.363388 3.499999,-5.7738483 0,-3.8567369 -3.130105,-6.9868422 -6.986842,-6.9868422 z" />
  <path
     style="opacity:0.4;fill:none;stroke:url(#linearGradient2489);stroke-width:1.00000012;stroke-linecap:round;stroke-linejoin:round;stroke-miterlimit:4;stroke-opacity:1;stroke-dasharray:none;stroke-dashoffset:0"
     id="path3741"
     d="M 24.837696,3.5000011 C 21.83405,3.5000011 19,6.3997505 19,9.4033946 19,11.26904 20.102498,13.018661 21.554674,14 c 0,0 0.971365,0.426172 0.969422,1 L 22.5,16.08377 C 22.4919,17.041803 22.322695,17.54002 20.858638,17.5 L 5.5,17.5 c -0.8212266,0 -1.9999999,0.94579 -1.9999999,1.767016 l 0,13.232984 C 3.5000001,32.5 5,31 7.5708072,31 12.474344,31 15.9,34.578391 15.9,39 c 0,4.903537 -4.389512,8 -7.5822049,8 C 4.6475115,47 3.5240965,45.385479 3.5240965,45.385479 L 3.5000001,59.057591 C 3.4985527,59.878817 4.1211819,60.5 4.9424085,60.5 L 18,60.5 c -0.569551,-1.158913 -1,-3.118874 -1,-4.5 0,-4.903537 4.204896,-8 8,-8 3.939682,0 8,3.096463 8,8 0,1.381126 -0.453915,3.341087 -1.26443,4.5 l 12.997413,0 C 45.55421,60.5 46.5,59.878818 46.5,59.057591 l 0,-15.91623 C 46.5081,42.183329 46.594047,42.008173 47.55208,42 l 1.243455,0 c 0.573828,-0.0019 0.772226,0.547595 1.204465,1 1.270995,1.264749 2.684688,2 4.550333,2 3.310342,0 5.983742,-2.996354 5.983742,-6 0,-3.003646 -2.349665,-6 -6.051897,-6 C 52.616533,33 51,34.382722 50.602093,34.812574 50,35.282018 49.403441,36.534137 48.829613,36.532193 l -1.073068,0 C 46.798512,36.523993 46.508173,36.141279 46.5,35.183246 l 0,-15.91623 C 46.5,18.44579 45.55421,17.5 44.732983,17.5 l -15.91623,0 C 27.85872,17.4918 27.508173,17.041803 27.5,16.08377 l 0,-1.243455 C 27.4981,14.266487 28.530555,14.330007 29,14 30.452176,13.018661 31,10.787112 31,8.9214669 31,5.9178212 27.841341,3.5000011 24.837696,3.5000011 z" />
</svg>

<svg xmlns="http://www.w3.org/2000/svg" xmlns:xlink="http://www.w3.org/1999/xlink" viewBox="0 0 64 64"><defs><linearGradient id="b"><stop offset="0" stop-opacity="0"/><stop offset=".5"/><stop offset="1" stop-opacity="0"/></linearGradient><linearGradient id="a"><stop offset="0"/><stop offset="1" stop-opacity="0"/></linearGradient><linearGradient id="e"><stop offset="0" stop-color="#455f0e"/><stop offset="1" stop-color="#84a718"/></linearGradient><linearGradient id="d"><stop offset="0" stop-color="#eef87e"/><stop offset=".262" stop-color="#cde34f"/><stop offset=".661" stop-color="#93b723"/><stop offset="1" stop-color="#5a7e0d"/></linearGradient><linearGradient id="c"><stop offset="0" stop-color="#fff"/><stop offset="1" stop-color="#fff" stop-opacity="0"/></linearGradient><radialGradient xlink:href="#a" id="f" gradientUnits="userSpaceOnUse" gradientTransform="matrix(2.00378 0 0 1.4 27.988 -17.4)" cx="4.993" cy="43.5" fx="4.993" fy="43.5" r="2.5"/><radialGradient xlink:href="#a" id="g" gradientUnits="userSpaceOnUse" gradientTransform="matrix(2.00378 0 0 1.4 -20.012 -104.4)" cx="4.993" cy="43.5" fx="4.993" fy="43.5" r="2.5"/><linearGradient xlink:href="#b" id="h" gradientUnits="userSpaceOnUse" x1="25.058" y1="47.028" x2="25.058" y2="39.999"/><radialGradient xlink:href="#a" id="i" gradientUnits="userSpaceOnUse" gradientTransform="matrix(2.00378 0 0 1.4 27.988 -17.4)" cx="4.993" cy="43.5" fx="4.993" fy="43.5" r="2.5"/><radialGradient xlink:href="#a" id="j" gradientUnits="userSpaceOnUse" gradientTransform="matrix(2.00378 0 0 1.4 -20.012 -104.4)" cx="4.993" cy="43.5" fx="4.993" fy="43.5" r="2.5"/><linearGradient xlink:href="#b" id="k" gradientUnits="userSpaceOnUse" x1="25.058" y1="47.028" x2="25.058" y2="39.999"/><linearGradient xlink:href="#c" id="n" gradientUnits="userSpaceOnUse" gradientTransform="translate(-13.36 .963) scale(1.59162)" x1="26.959" x2="26.959" y2="39.09"/><radialGradient xlink:href="#d" id="l" gradientUnits="userSpaceOnUse" gradientTransform="matrix(0 3.14337 -4.53433 0 82.76 -9.855)" cx="7.44" cy="15.377" fx="7.44" fy="15.377" r="20"/><linearGradient xlink:href="#e" id="m" gradientUnits="userSpaceOnUse" gradientTransform="translate(-2.695 11.278) scale(1.15452)" x1="24" y1="44" x2="24" y2="3.899"/></defs><g opacity=".3"><path fill="url(#f)" d="M38 40h5v7h-5z" transform="matrix(.55295 0 0 .57143 24.735 36.643)"/><path transform="matrix(-.55295 0 0 -.57143 24.735 36.643)" fill="url(#g)" d="M-10-47h5v7h-5z"/><path fill="url(#h)" d="M10 40h28v7H10z" transform="matrix(.55295 0 0 .57143 24.735 36.643)"/></g><g opacity=".3"><path fill="url(#i)" d="M38 40h5v7h-5z" transform="matrix(.55992 0 0 .57143 -1.3 36.643)"/><path transform="matrix(-.55992 0 0 -.57143 -1.3 36.643)" fill="url(#j)" d="M-10-47h5v7h-5z"/><path fill="url(#k)" d="M10 40h28v7H10z" transform="matrix(.55992 0 0 .57143 -1.3 36.643)"/></g><path d="M25.013 2.5a6.99 6.99 0 0 0-6.987 6.987c0 2.41 1.615 4.518 3.474 5.774v1.24H5.605c-1.72 0-3.105 1.36-3.105 3.08v15.09C3.78 33.06 5.72 32 7.934 32a6.99 6.99 0 0 1 6.987 6.987 6.99 6.99 0 0 1-6.98 6.987c-2.21 0-4.15-1.062-5.43-2.67v15.09a3.098 3.098 0 0 0 3.1 3.106H20.7c-1.607-1.28-2.67-3.22-2.67-5.434a6.99 6.99 0 0 1 6.99-6.987A6.99 6.99 0 0 1 32 56.06c0 2.213-1.062 4.154-2.67 5.434h15.09a3.098 3.098 0 0 0 3.106-3.106V43h1.213c1.25 1.86 3.36 2.974 5.77 2.974a6.99 6.99 0 0 0 6.98-6.987A6.99 6.99 0 0 0 54.513 32c-2.41 0-4.552 1.656-5.81 3.514H47.49l.035-15.935a3.096 3.096 0 0 0-3.105-3.11H28.5v-1.21C30.36 14 32 11.89 32 9.48a6.99 6.99 0 0 0-6.987-6.98z" fill="url(#l)" stroke="url(#m)" stroke-linecap="round" stroke-linejoin="round"/><path d="M24.838 3.5C21.834 3.5 19 6.4 19 9.403c0 1.866 1.102 3.616 2.555 4.597 0 0 .97.426.97 1l-.025 1.084c-.008.958-.177 1.456-1.64 1.416H5.5c-.82 0-2 .946-2 1.767V32.5S5 31 7.57 31c4.904 0 8.33 3.578 8.33 8 0 4.904-4.39 8-7.582 8-3.67 0-4.794-1.615-4.794-1.615L3.5 59.058c0 .82.62 1.442 1.442 1.442H18c-.57-1.16-1-3.12-1-4.5 0-4.904 4.205-8 8-8 3.94 0 8 3.096 8 8 0 1.38-.454 3.34-1.264 4.5h12.997c.82 0 1.767-.62 1.767-1.442V43.14c.008-.957.094-1.132 1.052-1.14h1.244c.573-.002.772.548 1.204 1 1.27 1.265 2.685 2 4.55 2 3.31 0 5.984-2.996 5.984-6s-2.35-6-6.052-6c-1.865 0-3.482 1.383-3.88 1.813-.602.47-1.2 1.72-1.772 1.72h-1.073c-.958-.01-1.25-.392-1.257-1.35V19.267c0-.82-.946-1.767-1.767-1.767H28.817c-.958-.008-1.31-.458-1.317-1.416V14.84c-.002-.574 1.03-.51 1.5-.84 1.452-.98 2-3.213 2-5.08 0-3.002-3.16-5.42-6.162-5.42z" opacity=".4" fill="none" stroke="url(#n)" stroke-linecap="round" stroke-linejoin="round"/></svg>
